public/doodles/search.svg

<svg class="w-10 h-10" viewBox="0 0 106 67" fill="none" xmlns="http://www.w3.org/2000/svg">
                      <path d="M0.746735 34.5184C12.2021 40.1368 19.6014 41.495 29.6823 33.0404C36.0718 27.6817 42.1501 19.6964 45.0862 11.851C46.7881 7.30351 40.6898 12.0318 39.6346 13.0432C27.4261 24.7444 22.6035 43.8023 31.4757 58.851C37.2579 68.6586 47.5163 67.3307 56.3712 62.5164C69.8751 55.1746 77.5257 39.8696 80.2223 25.2514C81.1193 20.3886 84.6829 5.82289 78.8378 2.65785C73.9949 0.0354855 72.0976 9.61317 71.6643 12.5431C71.0465 16.7204 70.0313 25.7894 73.1645 29.1607C77.6582 33.9957 86.6118 27.5772 89.8445 24.3227C95.9834 18.1424 100.46 9.32842 104.943 1.91147C105.273 1.36535 101.764 3.3297 101.147 3.66784C99.3793 4.63577 97.2951 4.84168 95.6089 5.96364C94.3579 6.79605 88.7443 12.6083 93.6037 10.5208C95.3164 9.785 103.323 1.07071 103.701 1.3055C105.246 2.26341 104.699 13.9403 104.581 16.0977C104.296 21.2928 97.1835 12.0461 96.4366 10.6636" stroke="currentColor" stroke-width="2" stroke-linecap="round"></path>
                    </svg>

<svg class="w-10 h-10" viewBox="0 0 106 67" fill="none" xmlns="http://www.w3.org/2000/svg">
    <path d="M.747 34.518c11.455 5.619 18.854 6.977 28.935-1.478 6.39-5.358 12.468-13.344 15.404-21.189 1.702-4.547-4.396.18-5.451 1.192-12.209 11.701-17.031 30.76-8.16 45.808 5.783 9.808 16.041 8.48 24.896 3.665 13.504-7.341 21.155-22.646 23.851-37.265.897-4.862 4.46-19.428-1.384-22.593-4.843-2.623-6.74 6.955-7.174 9.885-.618 4.177-1.633 13.246 1.5 16.618 4.494 4.835 13.448-1.584 16.68-4.838 6.14-6.18 10.616-14.995 15.099-22.412.33-.546-3.179 1.419-3.796 1.757-1.768.968-3.852 1.174-5.538 2.296-1.251.832-6.865 6.644-2.005 4.557 1.712-.736 9.719-9.45 10.097-9.216 1.545.958.998 12.635.88 14.793-.285 5.195-7.398-4.052-8.144-5.434" stroke="currentColor" stroke-width="2" stroke-linecap="round"/>
</svg>
